!!!COM: Beethoven
!!!OTL: Six Variations on an Original Theme
!!!Variation: Theme a
**function	**harm	**kern	**kern
*M2/4	*M2/4	*staff1	*staff2
*D:	*D:	*clefG2	*clefF4
*tb16	*	*k[f#c#]	*k[f#c#]
*	*	*M2/4	*M2/4
*	*	*D:	*D:
=-	=-	=1-	=1-
2T	2I	(8f#L 8a	8DDL 8D
.	.	8dJ) 8f#	8DJ
.	.	8d'L 8f#'	8DL
.	.	8d'J 8f#'	8DJ
=	=	=2	=2
2T	2I	(8f#L 8a	8DDL 8D
.	.	8dJ) 8f#	8DJ
.	.	8d'L 8f#'	8DL
.	.	8dd'J 8ff#'	8DJ
=	=	=3	=3
2()T	2(V)	16cc#LL 16ee	8DDL 8D
.	.	16b 16dd	.
.	.	16a 16cc#	8DJ
.	.	16gJJ 16b	.
.	.	8f#'L 8a'	8DL
.	.	8e'J 8g'	8DJ
=	=	=4	=4
2T	2I	8d'L 8f#'	8DDL 8D
.	.	8e'J 8g'	8DJ
.	.	4f# 4a	8DL
.	.	.	8DJ
=	=	=5	=5
2T	2I	(8f#L 8a	8DDL 8D
.	.	8dJ) 8f#	8DJ
.	.	8d'L 8f#'	8DL
.	.	8d'J 8f#'	8DJ
=	=	=6	=6
2T	2I	(8f#L 8a	8DDL 8D
.	.	8dJ) 8f#	8DJ
.	.	8d'L 8f#'	8DL
.	.	8dd'J 8ff#'	8DJ
=	=	=7	=7
4.()T	4.(V)	16cc#LL 16ee	8DDL 8D
.	.	16b 16dd	.
.	.	16a 16cc#	8DJ
.	.	16gJJ 16b	.
.	.	8f#'L 8a'	8DL
8D	8V7/vi	8c#'J 8e' 8a#'	8FF#J 8F#
=	=	=8	=8
2T	2vi	4B 4d 4b	4BBB 4BB
.	.	4A 4e 4a	4CC# 4C#
==	==	=9:|!|:	=9:|!|:
*-	*-	*-	*-
